X:1
T:Ahime qual fu l'errore
T:Luca Marenzio
T:Source : Il secondo Libro delle canzonette alla Napolitana a tre voci---Venetia---G.Vincenti---1587. Editor : André Vierendeels (06/05/17). 
T:Notes : Original clefs : G2, C2, F3 Editorial accidentals above the staff "Seconda  impressione" Music collected by Attilio Gualtieri m 16 in B : "F" sharp notated as "G" in original print
T:Ahime qual fu l'errore
T:©
T:©
T:©
C:Luca Marenzio
Z:©
%%score [ 1 2 3 ]
L:1/8
Q:1/4=120
M:4/4
K:F
V:1 treble nm="Soprano 1" snm="S 1"
V:2 treble nm="Soprano 2" snm="S 2"
V:3 bass nm="Bass" snm="B"
V:1
"^1)" B8- | B8 | A8 | z2 f2 _e2 d2 | c4 c2 d2 | B3 A B2 c2 | A4 A4 :: d3 d =B2 BB | c2 c2 A2 AA | %9
w: Ahi-||me,|qual fu l'er-|ro- re, che|si v'ac- ce- se'il|co- re,|ond' è na- to lo|sde- gno, c'ha guast' il|
w: U-||dit',|i miei la-|men- ti, che'in|do- lo- ro- si'ac-|cen- ti,|spar- gen- do not- t'e|gior- no, fan ri- so-|
 ^F2 F2 G2 G2 | g3 g e2 ee | f2 f2 d2 dd | =B2 B2 c4 | c4 z2 f2- | f2 e2 d4 | d2 c2 d4 | d4 _e4- | %17
w: mio di- se- gno|ond' è na- to lo|sde- gno, c'ha guast' il|mio di se-|gno, se'il|_ pen- tir|non mi gio-|va, do-|
w: nar d'in- tor- no,|spar- gen- do not- t'e|gior- no, fan ri- so-|nar d'in- tor-|no, con|_ vi- vo'ar-|den- te ze-|lo, il|
 e2 dc B2 c2 | A8 | G8 :| %20
w: * ne pie- tà si|tro-|va.|
w: _ mar, la ter- ra'e'il|cie-|lo.|
V:2
"^2)""^1)" G8- | G8 | ^F8 | z2 B2 G2 B2 | A4 A2 B2 | G3 G G2 G2 | ^F4 F4 :: z4 D3 D | G2 GG C2 C2 | %9
w: Ahi-||me,|qual fu l'er-|ro- re, che|si v'ac- ce- se'il|co- re,|ond' è|na- to lo sde- gno,|
w: Pie-||tà,|pie- tà, si-|gno- ra, non|vo- glia- te ch'io|mo- ra,|deh soc-|cor- re- te, pri- ma,|
 D2 DD D2 D2 | E2 E2 G3 F | A2 AA F2 F2 | G2 GG G2 G2 | A2 A2 z4 | z2 c2 =B4 | =B2 c2 A4 | %16
w: c'ha guast' il mio di-|se- gno, ond' è|na- to lo sde- gno,|c'ha guast' il mio di-|se- gno,|se'il pen-|non mi gio-|
w: che mort' il tut- t'op-|pri- ma, deh, soc-|cor- re- te, pri- ma,|che mort' il tut- t'op-|pri- ma,|se non|se- te ben|
 =B4 c4- | c2 BA G2 A2 | ^F2 G4 F2 | G8 :| %20
w: va, do|_ ne pie- tà si|tro- * *|va.|
w: pre- sta,|_ hor- mai po- co|ci re- *|sta.|
V:3
"^3)""^1)""^4)""^5)" G,8- | G,8 | D,8 | z2 B,,2 _E,2 G,2 | F,4 F,2 B,,2 | _E,3 D, E,2 C,2 | %6
w: Ahi-||me,|qual fu l'er-|ro- re, che|si v'ac- ce- se'il|
w: Ser-||bat'|que- sta vi-|* ta,, gia|da voi si gra-|
w: Se|_|di|me non vi|ca- le, di|voi sap- pi- a|
 D,4 D,4 :: z4 G,3 G, | E,2 E,E, F,2 F,2 | D,2 D,D, =B,,2 B,,2 | C,2 C,2 C3 C | A,2 A,A, B,2 B,2 | %12
w: co- re,|ond' è|na- to lo sde- gno,|c'ha guast' il mio di-|se- gno, ond' è|na- to lo sde- gno,|
w: di- ta,|ch'a mi-|glior tem- po po- i,|sa- rà spe- sa per|vo- i, ch'a mi-|glior tem- po po- i,|
w: ma- le,|che pur|det- ta cru- de- le,|sa- re- te s'un fe-|de- le, che pur|det- ta cru- de- le,|
 G,2 G,G, E,2 E,2 | F,2 F,2 z2 B,2- | B,2 C2 G,4 | G,2 A,2 ^F,4 | G,4 C,4 | C,2 D,2 _E,2 C,2 | %18
w: c'ha guast' il mio di-|se- gno, se'il|_ pen- tir|non mi gio-|va, do-|ne pie- tà si|
w: sa- rà spe- sa per|vo- i, non|_ dis- pre-|gia- te'in tut-|to, un'|huom di qual- che|
w: sa- re- te s'un fe-|de- le, a-|* man- te|com' io so-|no, non|tro- va'in voi per-|
 D,8 | G,8 :| %20
w: tro-|va.|
w: frut-|to.|
w: do-|no.|

